X: 20336
T: John Brosnan's
R: reel
M: 4/4
K: Bminor
F~B3 Bcde|~f2 ef dcBA|F~A3 FAEA|F~A3 fAeA|
F~B3 Bcde|~f2 ef dcBA|~f2 ef dfcf|1 FBBA ~B2 BA:|2 FBBA Bcde||
f~B3 fBde|~f2 bf afea|f~B3 fBdf|e~A3 eAce|
f~B3 fBde|~f2 bf afef|~f2 ef dfcf|1 FBBA Bcde:|2 FBBA B3 A||

